X: 1
T: Kit O'Mahoney's
R: Hornpipe
F: http://www.thesession.org/recordings/display/209
M: 4/4
L: 1/8
K: G
GA |\
B3 c  AB AG | FG AB cA FA | DB Bd cA FA |  D2 G2 G2 GA |
B2 Bc AB AG | FG AB cA FA | f3  d ec AF |1 D2 G2 G2 :|2 D2 G2 G2 ||
|: zD |\
GA Bc d2 g2 | de fd   cA  FA | GA Bc dg ef |  ga gf d2 ef |
gB dg fA Ad | ef ed (3Bcd eg | fa fd ec AF |1 D2 G2 G2 :|2 D2 G2 G2 |]
